symbolic/22x22/places/folder-oomox-steam.svg

<svg xmlns="http://www.w3.org/2000/svg" width="22" height="22" version="1"><rect style="opacity:.2" width="20" height="12" x="1" y="8.5" rx="1" ry="1"/><path style="fill:#1f252a" d="M1 16c0 .554.446 1 1 1h18c.554 0 1-.446 1-1V5c0-.554-.446-1-1-1h-9C9.5 4 9 2 7.5 2H2c-.554 0-1 .446-1 1"/><rect style="opacity:.2" width="20" height="12" x="1" y="7.5" rx="1" ry="1"/><rect style="fill:#e4e4e4" width="16" height="8" x="3" y="6" rx="1" ry="1"/><rect style="fill:#323a41" width="20" height="12" x="1" y="8" rx="1" ry="1"/><path style="opacity:.1;fill:#fff" d="M2 2c-.554 0-1 .446-1 1v.5c0-.554.446-1 1-1h5.5c1.5 0 2 2 3.5 2h9c.554 0 1 .446 1 1V5c0-.554-.446-1-1-1h-9C9.5 4 9 2 7.5 2z"/><path style="fill:#1f252a" d="m4 14.255 3.05 1.761A2.5 2.5 0 0 0 7 16.5a2.5 2.5 0 1 0 4.978-.314l2.598-2.219c.14.021.282.032.424.033a3 3 0 1 0-2.99-3.234l-2.098 3.269a2.473 2.473 0 0 0-1.713.334L4 11.945M15 9a2 2 0 1 1 .001 3.999A2 2 0 0 1 15 9zm0 1a1 1 0 1 0 0 2 1 1 0 0 0 0-2zm-5.539 5H9.5a1.5 1.5 0 1 1-1.498 1.566l.498.288c.495.286 1.117.13 1.394-.35.277-.48.101-1.097-.394-1.383l-.188-.107c.049-.007.099-.012.149-.014z"/></svg>

<svg xmlns="http://www.w3.org/2000/svg" width="22" height="22" version="1">
 <rect style="opacity:0.2" width="20" height="12" x="1" y="8.5" rx="1" ry="1"/>
 <path style="fill:#1f252a" d="M 1,16 C 1,16.554 1.446,17 2,17 H 20 C 20.554,17 21,16.554 21,16 V 5 C 21,4.446 20.554,4 20,4 H 11 C 9.5,4 9,2 7.5,2 H 2 C 1.446,2 1,2.446 1,3"/>
 <rect style="opacity:0.2" width="20" height="12" x="1" y="7.5" rx="1" ry="1"/>
 <rect style="fill:#e4e4e4" width="16" height="8" x="3" y="6" rx="1" ry="1"/>
 <rect style="fill:#323a41" width="20" height="12" x="1" y="8" rx="1" ry="1"/>
 <path style="opacity:0.1;fill:#ffffff" d="M 2,2 C 1.446,2 1,2.446 1,3 V 3.5 C 1,2.946 1.446,2.5 2,2.5 H 7.5 C 9,2.5 9.5,4.5 11,4.5 H 20 C 20.554,4.5 21,4.946 21,5.5 V 5 C 21,4.446 20.554,4 20,4 H 11 C 9.5,4 9,2 7.5,2 Z"/>
 <path style="fill:#1f252a" d="M 4,14.255 7.0507,16.016 C 7.0181,16.175 7.0011,16.337 6.9999,16.5 6.9999,17.881 8.1192,19 9.5,19 10.881,19 12,17.881 12,16.5 11.999,16.395 11.992,16.29 11.978,16.186 L 14.576,13.967 C 14.716,13.988 14.858,13.999 15,14 16.657,14 18,12.657 18,11 18,9.343 16.657,8 15,8 13.434,8.0004 12.132,9.205 12.01,10.766 L 9.912,14.035 C 9.776,14.012 9.638,14 9.5,14 9.041,14.001 8.5906,14.129 8.1991,14.369 L 4,11.945 M 15,9 C 16.105,9 17,9.895 17,11 17,12.105 16.105,13 15,13 13.895,13 13,12.105 13,11 13,9.895 13.895,9 15,9 Z M 15,10 C 14.448,10 14,10.448 14,11 14,11.552 14.448,12 15,12 15.552,12 16,11.552 16,11 16,10.448 15.552,10 15,10 Z M 9.461,15 C 9.474,15 9.487,15 9.5,15 10.328,15 11,15.672 11,16.5 11,17.328 10.328,18 9.5,18 8.6974,18 8.0371,17.368 8.0018,16.566 L 8.4999,16.854 C 8.9954,17.14 9.617,16.984 9.894,16.504 10.171,16.024 9.995,15.407 9.5,15.121 L 9.312,15.014 C 9.361,15.007 9.411,15.002 9.461,15 Z"/>
</svg>
